dist/svgs/team-briefcase.svg

<svg xmlns="http://www.w3.org/2000/svg" viewBox="0 0 512 512"><path d="M491 86q9 0 15 6t6 16v213q0 10-6 15.5t-15 5.5H299v-21q0-21-22-21h-42q-22 0-22 21v21H21q-9 0-15-5.5T0 321V108q0-10 6-16t15-6h128V44q0-22 22-22h170q22 0 22 22v42h128zm-22 299q10 0 16 6t6 15v64q0 22-22 22H43q-22 0-22-22v-64q0-9 6-15t16-6h170q0 21 22 21h42q22 0 22-21h170zm22-299q9 0 15 6t6 16v213q0 10-6 15.5t-15 5.5H299v-21q0-21-22-21h-42q-22 0-22 21v21H21q-9 0-15-5.5T0 321V108q0-10 6-16t15-6h128V44q0-22 22-22h170q22 0 22 22v42h128zm-22 299q10 0 16 6t6 15v64q0 22-22 22H43q-22 0-22-22v-64q0-9 6-15t16-6h170q0 21 22 21h42q22 0 22-21h170z"/></svg>

<?xml version="1.0" encoding="UTF-8" standalone="no"?><svg   xmlns:svg="http://www.w3.org/2000/svg"   xmlns="http://www.w3.org/2000/svg"   version="1.1"   width="512"   height="512"   viewBox="0 0 512 512">  <path     d="M491 86Q500 86 506 92T512 108V321Q512 331 506 336.5T491 342H299V321Q299 300 277 300H235Q213 300 213 321V342H21Q12 342 6 336.5T0 321V108Q0 98 6 92T21 86H149V44Q149 22 171 22H341Q363 22 363 44V86H491zM469 385Q479 385 485 391T491 406V470Q491 492 469 492H43Q21 492 21 470V406Q21 397 27 391T43 385H213Q213 406 235 406H277Q299 406 299 385H469zM491 86Q500 86 506 92T512 108V321Q512 331 506 336.5T491 342H299V321Q299 300 277 300H235Q213 300 213 321V342H21Q12 342 6 336.5T0 321V108Q0 98 6 92T21 86H149V44Q149 22 171 22H341Q363 22 363 44V86H491zM469 385Q479 385 485 391T491 406V470Q491 492 469 492H43Q21 492 21 470V406Q21 397 27 391T43 385H213Q213 406 235 406H277Q299 406 299 385H469z"     id="team-briefcase" /></svg>
